img/icons/password-eye.svg

<svg width="17" height="17" viewBox="0 0 17 17" fill="none" xmlns="http://www.w3.org/2000/svg">
<path d="M8.5 2.8335C4.86563 2.8335 1.70021 5.11617 0 8.50023C1.70021 11.8849 4.86563 14.1668 8.5 14.1668C12.1344 14.1668 15.2998 11.8849 17 8.50023C15.2998 5.11638 12.1344 2.8335 8.5 2.8335ZM8.5 12.7502C5.76489 12.7502 3.18198 11.1391 1.61392 8.50023C3.18194 5.86141 5.76489 4.25023 8.5 4.25023C11.2351 4.25023 13.818 5.86141 15.3861 8.50023C13.818 11.1391 11.2351 12.7502 8.5 12.7502Z" fill="#9498AB"/>
<path d="M8.5 5.3125C6.73878 5.3125 5.3125 6.73878 5.3125 8.5C5.3125 10.2606 6.73878 11.6875 8.5 11.6875C10.2603 11.6875 11.6875 10.2606 11.6875 8.5C11.6875 6.73878 10.2603 5.3125 8.5 5.3125ZM8.5 10.271C7.52188 10.271 6.72924 9.47833 6.72924 8.5C6.72924 7.52188 7.52188 6.72924 8.5 6.72924C9.47812 6.72924 10.2708 7.52188 10.2708 8.5C10.2708 9.47833 9.47812 10.271 8.5 10.271Z" fill="#9498AB"/>
</svg>

<svg width="17" height="17" fill="none" xmlns="http://www.w3.org/2000/svg"><path d="M8.5 2.833C4.866 2.833 1.7 5.117 0 8.5c1.7 3.385 4.866 5.667 8.5 5.667 3.634 0 6.8-2.282 8.5-5.667-1.7-3.384-4.866-5.667-8.5-5.667zm0 9.917c-2.735 0-5.318-1.61-6.886-4.25C3.182 5.861 5.764 4.25 8.5 4.25c2.735 0 5.318 1.611 6.886 4.25-1.568 2.64-4.15 4.25-6.886 4.25z" fill="#9498AB"/><path d="M8.5 5.313a3.187 3.187 0 10-.001 6.376A3.187 3.187 0 008.5 5.312zm0 4.958a1.77 1.77 0 110-3.541 1.77 1.77 0 010 3.541z" fill="#9498AB"/></svg>
